src/main/resources/icons/AllIcons/general/inspectionsTypos.svg

<!-- Copyright 2000-2021 JetBrains s.r.o. Use of this source code is governed by the Apache 2.0 license that can be found in the LICENSE file. -->
<svg width="16" height="16" viewBox="0 0 16 16" fill="none" xmlns="http://www.w3.org/2000/svg">
<g id="idea/community/platform/icons/src/general/inspectionsTypos">
<path id="Path 2" fill-rule="evenodd" clip-rule="evenodd" d="M6.68011 12.0708L13.7512 4.99977L11.8227 3.0713L6.68011 8.21389L4.10881 5.64259L2.18034 7.57107L6.68011 12.0708Z" fill="#59A869"/>
<path id="Line" fill-rule="evenodd" clip-rule="evenodd" d="M2.70711 15.0142L2 14.3071L4.70711 11.6L5.41421 12.3071L2.70711 15.0142Z" fill="#59A869"/>
<path id="Line 2" fill-rule="evenodd" clip-rule="evenodd" d="M4 12.3071L4.70711 11.6L7.41421 14.3071L6.70711 15.0142L4 12.3071Z" fill="#59A869"/>
<path id="Line 3" fill-rule="evenodd" clip-rule="evenodd" d="M6.70711 15.0142L6 14.3071L8.70711 11.6L9.41421 12.3071L6.70711 15.0142Z" fill="#59A869"/>
<path id="Line 4" fill-rule="evenodd" clip-rule="evenodd" d="M8 12.3071L8.70711 11.6L11.4142 14.3071L10.7071 15.0142L8 12.3071Z" fill="#59A869"/>
<path id="Line 5" fill-rule="evenodd" clip-rule="evenodd" d="M10.7071 15.0142L10 14.3071L12.7071 11.6L13.4142 12.3071L10.7071 15.0142Z" fill="#59A869"/>
</g>
</svg>

<svg width="16" height="16" viewBox="0 0 16 16" fill="none" xmlns="http://www.w3.org/2000/svg"><rect id="frame" width="16" height="16" fill="none"/><g fill-rule="evenodd" clip-rule="evenodd" fill="#59A869"><path d="M6.68 12.07L13.751 5 11.823 3.07 6.68 8.214 4.11 5.643 2.18 7.57l4.5 4.5z"/><path d="M2.707 15.014L2 14.307 4.707 11.6l.707.707-2.707 2.707z"/><path d="M4 12.307l.707-.707 2.707 2.707-.707.707L4 12.307z"/><path d="M6.707 15.014L6 14.307 8.707 11.6l.707.707-2.707 2.707z"/><path d="M8 12.307l.707-.707 2.707 2.707-.707.707L8 12.307z"/><path d="M10.707 15.014L10 14.307l2.707-2.707.707.707-2.707 2.707z"/></g></svg>
